; generated by PrusaSlicer 2.6.1 on 2023-11-14 at 15:11:02 UTC

; 

; external perimeters extrusion width = 0.42mm
; perimeters extrusion width = 0.44mm
; infill extrusion width = 0.44mm
; solid infill extrusion width = 0.44mm
; top infill extrusion width = 0.40mm
; first layer extrusion width = 0.42mm

M201 X500 Y500 Z100 E5000 ; sets maximum accelerations, mm/sec^2
M203 X500 Y500 Z10 E60 ; sets maximum feedrates, mm / sec
M204 P500 R1000 T500 ; sets acceleration (P, T) and retract acceleration (R), mm/sec^2
M205 X8.00 Y8.00 Z0.40 E5.00 ; sets the jerk limits, mm/sec
M205 S0 T0 ; sets the minimum extruding and travel feed rate, mm/sec
;TYPE:Custom
;
; First layer print x min = 81.328
; First layer print y min = 81.328
; First layer print x max = 138.672
; First layer print y max = 138.672
; Total layer count = 20
;
M201 X500.00 Y500.00 Z100.00 E5000.00 ;Setup machine max acceleration
M203 X500.00 Y500.00 Z20.00 E50.00 ;Setup machine max feedrate
M204 P500.00 R1000.00 T500.00 ;Setup Print/Retract/Travel acceleration
M205 X8.00 Y8.00 Z0.40 E5.00 ;Setup Jerk
M220 S100 ;Reset Feedrate
M221 S100 ;Reset Flowrate

G90 ; use absolute coordinates
M83 ; extruder relative mode
M104 S215 ; set extruder temp
M140 S60 ; set bed temp
M190 S60 ; wait for bed temp
M109 S215 ; wait for extruder temp
G29 P1 ; Home automatically and run mesh leveling on every print
G29 A ; Activate UBL
C108 ; Close the mesh viewer (optional)
G1 Z2 F240
G1 X2 Y10 F3000
G1 Z0.28 F240
G92 E0
G1 Y190 E15 F1500 ; intro line
G1 X2.3 F5000
G92 E0
G1 Y10 E15 F1200 ; intro line
G92 E0
G21 ; set units to millimeters
G90 ; use absolute coordinates
M83 ; use relative distances for extrusion
; Filament gcode
M107
;LAYER_CHANGE
;Z:0.2
;HEIGHT:0.2
;BEFORE_LAYER_CHANGE
G92 E0
;0.2


G1 E-5 F3600
G1 Z.2 F9000
;AFTER_LAYER_CHANGE
;0.2
G1 X90.192 Y89.564
G1 E5 F2400
M204 P500
;TYPE:Skirt/Brim
;WIDTH:0.42
G1 F1200
G1 X90.703 Y89.049 E.02275
G1 X92.719 Y87.358 E.0825
G1 X94.758 Y85.938 E.07791
G1 X96.913 Y84.701 E.07791
G1 X99.032 Y83.713 E.07331
G1 X100.189 Y83.259 E.03897
G1 X102.557 Y82.506 E.07791
G1 X105.126 Y81.936 E.08251
G1 X106.355 Y81.751 E.03897
G1 X108.684 Y81.547 E.0733
G1 X111.169 Y81.54 E.07792
G1 X113.645 Y81.751 E.07791
G1 X116.237 Y82.208 E.08252
G1 X118.635 Y82.857 E.07789
G1 X120.832 Y83.656 E.0733
G1 X121.971 Y84.154 E.03898
G1 X124.178 Y85.296 E.07791
G1 X126.398 Y86.71 E.08253
G1 X127.398 Y87.447 E.03895
G1 X129.189 Y88.95 E.07331
G1 X130.951 Y90.703 E.07793
G1 X132.642 Y92.719 E.0825
G1 X134.062 Y94.758 E.07791
G1 X135.299 Y96.913 E.07791
G1 X136.287 Y99.032 E.07331
G1 X136.741 Y100.189 E.03897
G1 X137.494 Y102.557 E.07791
G1 X138.064 Y105.126 E.08251
G1 X138.249 Y106.355 E.03897
G1 X138.453 Y108.684 E.0733
G1 X138.46 Y111.169 E.07792
G1 X138.249 Y113.645 E.07791
G1 X137.792 Y116.237 E.08252
G1 X137.143 Y118.635 E.07789
G1 X136.344 Y120.832 E.0733
G1 X135.846 Y121.971 E.03898
G1 X134.704 Y124.178 E.07791
G1 X133.29 Y126.398 E.08253
G1 X132.553 Y127.398 E.03895
G1 X131.05 Y129.189 E.07331
G1 X129.297 Y130.95 E.07791
G1 X127.398 Y132.553 E.07792
G1 X125.242 Y134.062 E.08251
G1 X123.087 Y135.299 E.07791
G1 X120.968 Y136.287 E.07331
G1 X119.811 Y136.741 E.03897
G1 X117.443 Y137.494 E.07791
G1 X114.874 Y138.064 E.08251
G1 X113.645 Y138.249 E.03897
G1 X111.316 Y138.453 E.0733
G1 X108.831 Y138.46 E.07792
G1 X106.355 Y138.249 E.07791
G1 X103.763 Y137.792 E.08252
G1 X101.365 Y137.143 E.07789
G1 X99.168 Y136.344 E.0733
G1 X98.029 Y135.846 E.03898
G1 X95.822 Y134.704 E.07791
G1 X93.602 Y133.29 E.08253
G1 X92.602 Y132.553 E.03895
G1 X90.839 Y131.074 E.07215
G1 X89.05 Y129.298 E.07904
G1 X87.447 Y127.398 E.07794
G1 X85.938 Y125.242 E.08251
G1 X84.701 Y123.087 E.07791
G1 X83.713 Y120.968 E.07331
G1 X83.259 Y119.811 E.03897
G1 X82.506 Y117.443 E.07791
G1 X81.936 Y114.874 E.08251
G1 X81.751 Y113.645 E.03897
G1 X81.547 Y111.316 E.0733
G1 X81.54 Y108.831 E.07792
G1 X81.751 Y106.355 E.07791
G1 X82.208 Y103.763 E.08252
G1 X82.857 Y101.365 E.07789
G1 X83.656 Y99.168 E.0733
G1 X84.154 Y98.029 E.03898
G1 X85.296 Y95.822 E.07791
G1 X86.71 Y93.602 E.08253
G1 X87.447 Y92.602 E.03895
G1 X88.926 Y90.839 E.07215
G1 X90.15 Y89.606 E.05447
; printing object IETE_COIN id:0 copy 0
G1 E-3.5 F3600
;WIPE_START
G1 F7200
G1 X90.703 Y89.049 E-.37282
G1 X92.521 Y87.524 E-1.12718
;WIPE_END
G1 X93 Y92.999 F9000
G1 E5 F2400
;TYPE:Perimeter
;WIDTH:0.419999
G1 F1200
G1 X93.757 Y92.274 E.03286
G1 X94.546 Y91.582 E.03291
G1 X95.364 Y90.926 E.03288
G1 X96.21 Y90.305 E.0329
G1 X97.082 Y89.722 E.03289
G1 X97.95 Y89.196 E.03182
G1 X98.899 Y88.673 E.03397
G1 X99.839 Y88.21 E.03285
G1 X100.799 Y87.787 E.03289
G1 X101.777 Y87.407 E.0329
G1 X102.77 Y87.07 E.03288
G1 X103.777 Y86.776 E.03289
G1 X104.796 Y86.527 E.03289
G1 X105.825 Y86.322 E.0329
G1 X106.862 Y86.163 E.03289
G1 X107.905 Y86.049 E.0329
G1 X108.951 Y85.98 E.03287
G1 X110 Y85.957 E.0329
G1 X110.667 Y85.972 E.02092
G1 X112.101 Y86.049 E.04503
G1 X113.138 Y86.163 E.03271
G1 X114.175 Y86.322 E.03289
G1 X115.204 Y86.527 E.0329
G1 X116.223 Y86.776 E.03289
G1 X117.23 Y87.07 E.03289
G1 X118.223 Y87.407 E.03288
G1 X119.201 Y87.787 E.0329
G1 X120.161 Y88.21 E.03289
G1 X121.102 Y88.674 E.0329
G1 X122.021 Y89.178 E.03286
G1 X122.918 Y89.722 E.03289
G1 X123.79 Y90.305 E.03289
G1 X124.636 Y90.926 E.0329
G1 X125.454 Y91.582 E.03288
G1 X126.243 Y92.274 E.03291
G1 X127.001 Y92.999 E.03289
G1 X127.726 Y93.757 E.03289
G1 X128.418 Y94.546 E.03291
G1 X129.074 Y95.364 E.03288
G1 X129.695 Y96.21 E.0329
G1 X130.278 Y97.082 E.03289
G1 X130.804 Y97.95 E.03182
G1 X131.327 Y98.899 E.03397
G1 X131.79 Y99.839 E.03285
G1 X132.213 Y100.799 E.03289
G1 X132.593 Y101.777 E.0329
G1 X132.93 Y102.77 E.03288
G1 X133.224 Y103.777 E.03289
G1 X133.473 Y104.796 E.03289
G1 X133.678 Y105.825 E.0329
G1 X133.832 Y106.829 E.03185
G1 X133.951 Y107.905 E.03394
G1 X134.02 Y108.951 E.03287
G1 X134.043 Y110 E.0329
G1 X134.02 Y111.049 E.0329
G1 X133.951 Y112.095 E.03287
G1 X133.837 Y113.138 E.0329
G1 X133.678 Y114.175 E.03289
G1 X133.473 Y115.204 E.0329
G1 X133.224 Y116.223 E.03289
G1 X132.93 Y117.23 E.03289
G1 X132.593 Y118.223 E.03288
G1 X132.213 Y119.201 E.0329
G1 X131.79 Y120.161 E.03289
G1 X131.326 Y121.102 E.0329
G1 X130.822 Y122.021 E.03286
G1 X130.278 Y122.918 E.03289
G1 X129.695 Y123.79 E.03289
G1 X129.074 Y124.636 E.0329
G1 X128.418 Y125.454 E.03288
G1 X127.748 Y126.218 E.03186
G1 X127 Y127.001 E.03395
G1 X126.243 Y127.726 E.03286
G1 X125.454 Y128.418 E.03291
G1 X124.636 Y129.074 E.03288
G1 X123.79 Y129.695 E.0329
G1 X122.918 Y130.278 E.03289
G1 X122.05 Y130.804 E.03182
G1 X121.101 Y131.327 E.03397
G1 X120.161 Y131.79 E.03285
G1 X119.201 Y132.213 E.03289
G1 X118.223 Y132.593 E.0329
G1 X117.23 Y132.93 E.03288
G1 X116.223 Y133.224 E.03289
G1 X115.204 Y133.473 E.03289
G1 X114.175 Y133.678 E.0329
G1 X113.171 Y133.832 E.03185
G1 X112.095 Y133.951 E.03394
G1 X111.049 Y134.02 E.03287
G1 X110 Y134.043 E.0329
G1 X108.951 Y134.02 E.0329
G1 X107.905 Y133.951 E.03287
G1 X106.862 Y133.837 E.0329
G1 X105.825 Y133.678 E.03289
G1 X104.796 Y133.473 E.0329
G1 X103.777 Y133.224 E.03289
G1 X102.77 Y132.93 E.03289
G1 X101.777 Y132.593 E.03288
G1 X100.799 Y132.213 E.0329
G1 X99.839 Y131.79 E.03289
G1 X98.898 Y131.326 E.0329
G1 X97.979 Y130.822 E.03286
G1 X97.082 Y130.278 E.03289
G1 X96.21 Y129.695 E.03289
G1 X95.364 Y129.074 E.0329
G1 X94.546 Y128.418 E.03288
G1 X93.782 Y127.748 E.03186
G1 X92.999 Y127 E.03395
G1 X92.274 Y126.243 E.03286
G1 X91.582 Y125.454 E.03291
G1 X90.926 Y124.636 E.03288
G1 X90.305 Y123.79 E.0329
G1 X89.722 Y122.918 E.03289
G1 X89.178 Y122.021 E.03289
G1 X88.674 Y121.102 E.03286
G1 X88.21 Y120.161 E.0329
G1 X87.787 Y119.201 E.03289
G1 X87.407 Y118.223 E.0329
G1 X87.07 Y117.23 E.03288
G1 X86.776 Y116.223 E.03289
G1 X86.527 Y115.204 E.03289
G1 X86.322 Y114.175 E.0329
G1 X86.168 Y113.171 E.03185
G1 X86.049 Y112.095 E.03394
G1 X85.98 Y111.049 E.03287
G1 X85.957 Y110 E.0329
G1 X85.98 Y108.951 E.0329
G1 X86.049 Y107.905 E.03287
G1 X86.163 Y106.862 E.0329
G1 X86.322 Y105.825 E.03289
G1 X86.527 Y104.796 E.0329
G1 X86.768 Y103.81 E.03183
G1 X87.07 Y102.77 E.03396
G1 X87.407 Y101.777 E.03288
G1 X87.787 Y100.799 E.0329
G1 X88.21 Y99.839 E.03289
G1 X88.674 Y98.898 E.0329
G1 X89.178 Y97.979 E.03286
G1 X89.722 Y97.082 E.03289
G1 X90.305 Y96.21 E.03289
G1 X90.926 Y95.364 E.0329
G1 X91.582 Y94.546 E.03288
G1 X92.252 Y93.782 E.03186
G1 X92.958 Y93.042 E.03207
G1 X92.733 Y92.732 F9000
G1 F1200
G1 X93.502 Y91.996 E.03338
G1 X94.303 Y91.293 E.03342
G1 X95.134 Y90.626 E.03341
G1 X95.993 Y89.996 E.0334
G1 X96.879 Y89.404 E.03341
G1 X97.761 Y88.869 E.03234
G1 X98.724 Y88.339 E.03446
G1 X99.68 Y87.868 E.03342
G1 X100.655 Y87.439 E.0334
G1 X101.648 Y87.053 E.0334
G1 X102.657 Y86.71 E.03341
G1 X103.68 Y86.412 E.03341
G1 X104.715 Y86.159 E.03341
G1 X105.76 Y85.951 E.03341
G1 X106.813 Y85.789 E.0334
G1 X107.872 Y85.673 E.0334
G1 X108.935 Y85.603 E.0334
G1 X110 Y85.58 E.0334
G1 X110.681 Y85.595 E.02136
G1 X112.132 Y85.673 E.04556
G1 X113.187 Y85.789 E.03328
G1 X114.241 Y85.951 E.03344
G1 X115.285 Y86.159 E.03338
G1 X116.32 Y86.412 E.03341
G1 X117.343 Y86.71 E.03341
G1 X118.352 Y87.053 E.03341
G1 X119.345 Y87.439 E.0334
G1 X120.32 Y87.868 E.0334
G1 X121.276 Y88.339 E.03342
G1 X122.21 Y88.852 E.03341
G1 X123.121 Y89.404 E.0334
G1 X124.007 Y89.996 E.03341
G1 X124.866 Y90.626 E.0334
G1 X125.697 Y91.293 E.03341
G1 X126.498 Y91.996 E.03342
G1 X127.268 Y92.732 E.0334
G1 X128.004 Y93.502 E.0334
G1 X128.707 Y94.303 E.03342
G1 X129.374 Y95.134 E.03341
G1 X130.004 Y95.993 E.0334
G1 X130.596 Y96.879 E.03341
G1 X131.131 Y97.761 E.03234
G1 X131.661 Y98.724 E.03446
G1 X132.132 Y99.68 E.03342
G1 X132.561 Y100.655 E.0334
G1 X132.947 Y101.648 E.0334
G1 X133.29 Y102.657 E.03341
G1 X133.588 Y103.68 E.03341
G1 X133.841 Y104.715 E.03341
G1 X134.049 Y105.76 E.03341
G1 X134.206 Y106.779 E.03233
G1 X134.327 Y107.872 E.03448
G1 X134.397 Y108.935 E.0334
G1 X134.42 Y110 E.0334
G1 X134.397 Y111.065 E.0334
G1 X134.327 Y112.128 E.0334
G1 X134.211 Y113.187 E.0334
G1 X134.049 Y114.241 E.03344
G1 X133.841 Y115.285 E.03338
G1 X133.588 Y116.32 E.03341
G1 X133.29 Y117.343 E.03341
G1 X132.947 Y118.352 E.03341
G1 X132.561 Y119.345 E.0334
G1 X132.132 Y120.32 E.0334
G1 X131.661 Y121.276 E.03342
G1 X131.148 Y122.21 E.03341
G1 X130.596 Y123.121 E.0334
G1 X130.004 Y124.007 E.03341
G1 X129.374 Y124.866 E.0334
G1 X128.707 Y125.697 E.03341
G1 X128.027 Y126.472 E.03233
G1 X127.267 Y127.268 E.03451
G1 X126.498 Y128.004 E.03338
G1 X125.697 Y128.707 E.03342
G1 X124.866 Y129.374 E.03341
G1 X124.007 Y130.004 E.0334
G1 X123.121 Y130.596 E.03341
G1 X122.239 Y131.131 E.03234
G1 X121.276 Y131.661 E.03446
G1 X120.32 Y132.132 E.03342
G1 X119.345 Y132.561 E.0334
G1 X118.352 Y132.947 E.0334
G1 X117.343 Y133.29 E.03341
G1 X116.32 Y133.588 E.03341
G1 X115.285 Y133.841 E.03341
G1 X114.24 Y134.049 E.03341
G1 X113.221 Y134.206 E.03233
G1 X112.128 Y134.327 E.03448
G1 X111.065 Y134.397 E.0334
G1 X110 Y134.42 E.0334
G1 X108.935 Y134.397 E.0334
G1 X107.872 Y134.327 E.0334
G1 X106.813 Y134.211 E.0334
G1 X105.759 Y134.049 E.03344
G1 X104.715 Y133.841 E.03338
G1 X103.68 Y133.588 E.03341
G1 X102.657 Y133.29 E.03341
G1 X101.648 Y132.947 E.03341
G1 X100.655 Y132.561 E.0334
G1 X99.68 Y132.132 E.0334
G1 X98.724 Y131.661 E.03342
G1 X97.79 Y131.148 E.03341
G1 X96.879 Y130.596 E.0334
G1 X95.993 Y130.004 E.03341
G1 X95.134 Y129.374 E.0334
G1 X94.303 Y128.707 E.03341
G1 X93.528 Y128.027 E.03233
G1 X92.732 Y127.267 E.03451
G1 X91.996 Y126.498 E.03338
G1 X91.293 Y125.697 E.03342
G1 X90.626 Y124.866 E.03341
G1 X89.996 Y124.007 E.0334
G1 X89.404 Y123.121 E.03341
G1 X88.852 Y122.21 E.0334
G1 X88.339 Y121.276 E.03341
G1 X87.868 Y120.32 E.03342
G1 X87.439 Y119.345 E.0334
G1 X87.053 Y118.352 E.0334
G1 X86.71 Y117.343 E.03341
G1 X86.412 Y116.32 E.03341
G1 X86.159 Y115.285 E.03341
G1 X85.951 Y114.24 E.03341
G1 X85.794 Y113.221 E.03233
G1 X85.673 Y112.128 E.03448
G1 X85.603 Y111.065 E.0334
G1 X85.58 Y110 E.0334
G1 X85.603 Y108.935 E.0334
G1 X85.673 Y107.872 E.0334
G1 X85.789 Y106.813 E.0334
G1 X85.951 Y105.759 E.03344
G1 X86.159 Y104.715 E.03338
G1 X86.404 Y103.713 E.03234
G1 X86.71 Y102.656 E.0345
G1 X87.053 Y101.648 E.03338
G1 X87.439 Y100.655 E.0334
G1 X87.868 Y99.68 E.0334
G1 X88.339 Y98.724 E.03342
G1 X88.852 Y97.79 E.03341
G1 X89.404 Y96.879 E.0334
G1 X89.996 Y95.993 E.03341
G1 X90.626 Y95.134 E.0334
G1 X91.293 Y94.303 E.03341
G1 X91.973 Y93.528 E.03233
G1 X92.691 Y92.776 E.0326
G1 X92.466 Y92.466 F9000
;TYPE:External perimeter
G1 F1200
G1 X93.247 Y91.718 E.03391
G1 X94.061 Y91.004 E.03395
G1 X94.904 Y90.327 E.0339
G1 X95.777 Y89.687 E.03394
G1 X96.676 Y89.086 E.03391
G1 X97.572 Y88.543 E.03285
G1 X98.55 Y88.005 E.035
G1 X99.52 Y87.526 E.03392
G1 X100.511 Y87.09 E.03395
G1 X101.519 Y86.698 E.03391
G1 X102.543 Y86.351 E.0339
G1 X103.582 Y86.048 E.03393
G1 X104.633 Y85.791 E.03392
G1 X105.694 Y85.58 E.03392
G1 X106.763 Y85.415 E.03391
G1 X107.839 Y85.297 E.03394
G1 X108.918 Y85.226 E.0339
G1 X110 Y85.203 E.03393
G1 X110.696 Y85.218 E.02183
G1 X112.162 Y85.297 E.04603
G1 X113.237 Y85.415 E.03391
G1 X114.306 Y85.58 E.03391
G1 X115.367 Y85.791 E.03392
G1 X116.418 Y86.048 E.03392
G1 X117.457 Y86.351 E.03393
G1 X118.481 Y86.698 E.0339
G1 X119.489 Y87.09 E.03391
G1 X120.48 Y87.526 E.03395
G1 X121.45 Y88.005 E.03392
G1 X122.399 Y88.525 E.03393
G1 X123.324 Y89.086 E.03392
G1 X124.223 Y89.687 E.03391
G1 X125.096 Y90.327 E.03394
G1 X125.939 Y91.004 E.0339
G1 X126.753 Y91.718 E.03395
G1 X127.534 Y92.466 E.03391
G1 X128.282 Y93.247 E.03391
G1 X128.996 Y94.061 E.03395
G1 X129.673 Y94.904 E.0339
G1 X130.313 Y95.777 E.03394
G1 X130.914 Y96.676 E.03391
G1 X131.457 Y97.572 E.03285
G1 X131.995 Y98.55 E.035
G1 X132.474 Y99.52 E.03392
G1 X132.91 Y100.511 E.03395
G1 X133.302 Y101.519 E.03391
G1 X133.649 Y102.543 E.0339
G1 X133.952 Y103.582 E.03393
G1 X134.209 Y104.633 E.03392
G1 X134.42 Y105.694 E.03392
G1 X134.58 Y106.73 E.03287
G1 X134.703 Y107.839 E.03499
G1 X134.774 Y108.918 E.0339
G1 X134.797 Y110 E.03393
G1 X134.774 Y111.082 E.03393
G1 X134.703 Y112.161 E.0339
G1 X134.585 Y113.237 E.03394
G1 X134.42 Y114.306 E.03391
G1 X134.209 Y115.367 E.03392
G1 X133.952 Y116.418 E.03392
G1 X133.649 Y117.457 E.03393
G1 X133.302 Y118.481 E.0339
G1 X132.91 Y119.489 E.03391
G1 X132.474 Y120.48 E.03395
G1 X131.995 Y121.45 E.03392
G1 X131.475 Y122.399 E.03393
G1 X130.914 Y123.324 E.03392
G1 X130.313 Y124.223 E.03391
G1 X129.673 Y125.096 E.03394
G1 X128.996 Y125.939 E.0339
G1 X128.305 Y126.727 E.03286
G1 X127.534 Y127.534 E.03499
G1 X126.753 Y128.282 E.03391
G1 X125.939 Y128.996 E.03395
G1 X125.096 Y129.673 E.0339
G1 X124.223 Y130.313 E.03394
G1 X123.324 Y130.914 E.03391
G1 X122.428 Y131.457 E.03285
G1 X121.45 Y131.995 E.035
G1 X120.48 Y132.474 E.03392
G1 X119.489 Y132.91 E.03395
G1 X118.481 Y133.302 E.03391
G1 X117.457 Y133.649 E.0339
G1 X116.418 Y133.952 E.03393
G1 X115.367 Y134.209 E.03392
G1 X114.306 Y134.42 E.03392
G1 X113.27 Y134.58 E.03287
G1 X112.161 Y134.703 E.03499
G1 X111.082 Y134.774 E.0339
G1 X110 Y134.797 E.03393
G1 X108.918 Y134.774 E.03393
G1 X107.839 Y134.703 E.0339
G1 X106.763 Y134.585 E.03394
G1 X105.694 Y134.42 E.03391
G1 X104.633 Y134.209 E.03392
G1 X103.582 Y133.952 E.03392
G1 X102.543 Y133.649 E.03393
G1 X101.519 Y133.302 E.0339
G1 X100.511 Y132.91 E.03391
G1 X99.52 Y132.474 E.03395
G1 X98.55 Y131.995 E.03392
G1 X97.601 Y131.475 E.03393
G1 X96.676 Y130.914 E.03392
G1 X95.777 Y130.313 E.03391
G1 X94.904 Y129.673 E.03394
G1 X94.061 Y128.996 E.0339
G1 X93.273 Y128.305 E.03286
G1 X92.466 Y127.534 E.03499
G1 X91.718 Y126.753 E.03391
G1 X91.004 Y125.939 E.03395
G1 X90.327 Y125.096 E.0339
G1 X89.687 Y124.223 E.03394
G1 X89.086 Y123.324 E.03391
G1 X88.525 Y122.399 E.03392
G1 X88.005 Y121.45 E.03393
G1 X87.526 Y120.48 E.03392
G1 X87.09 Y119.489 E.03395
G1 X86.698 Y118.481 E.03391
G1 X86.351 Y117.457 E.0339
G1 X86.048 Y116.418 E.03393
G1 X85.791 Y115.367 E.03392
G1 X85.58 Y114.306 E.03392
G1 X85.42 Y113.27 E.03287
G1 X85.297 Y112.161 E.03499
G1 X85.226 Y111.082 E.0339
G1 X85.203 Y110 E.03393
G1 X85.226 Y108.918 E.03393
G1 X85.297 Y107.839 E.0339
G1 X85.415 Y106.763 E.03394
